X:1
T:Be Ready When the Bridegroom Comes
T:Be Ready When the Bridegroom Comes
T:James Milton Black
T:James Milton Black, 1897
T:Public Domain Courtesy of the Cyber Hymnal™
T:Public Domain Courtesy of the Cyber Hymnal™
C:James Milton Black
Z:Public Domain
Z:Courtesy of the Cyber Hymnal™
%%score ( 1 2 ) ( 3 4 )
L:1/8
Q:1/4=110
M:4/4
K:Eb
V:1 treble 
V:2 treble 
V:3 bass 
V:4 bass 
V:1
 E>[EF] | [EG]2 [EG]2 [EG]2 [DF]>[DF] | E2 [EA]2 [EG]3 [EG] | [EG]<[GB] [GB]>[Ac] [GB]2 [EG]2 | %4
w: 1.~Are you|walk- ing now in the|light of God? Be|read- y when the Bride- groom|
w: 2.~Have you|full sal- va- tion from|ev- ery sin? Be|read- y when the Bride- groom|
w: 3.~Is your|heart made clean by the|pre- cious blood? Be|read- y when the Bride- groom|
w: 4.~He will|come some day un- to|ev- ery soul; Be|read- y when the Bride- groom|
 [DF]6 E>[EF] | [EG]2 [EG]2 [EG]2 [DF]>[DF] | E2 [EA]2 [EG]3 [EG] | [EG]<[GB] E>[EF] [EG]2 [DF]2 | %8
w: comes. Are you|in the path that the|Mas- ter trod? Be|read- y when the Bride- groom|
w: comes. Trust- ing|in His Word, have you|peace with- in? Be|read- y when the Bride- groom|
w: comes. Have you|been made white in the|cleans- ing flood? Be|read- y when the Bride- groom|
w: comes. By His|heal- ing power let Him|make you whole— Be|read- y when the Bride- groom|
 [B,E]6 z2 ||"^Refrain" [Ge]2 [Ge]>[Bd] [Ac] [Ae]2 [Ac] | [GB]2 [Ac]2 [GB]3 z | %11
w: comes.|||
w: comes.|Will you be read- y to|en- ter in?|
w: comes.|||
w: comes.|||
 [GB]<[GB] [GB]>[Ac] [GB]2 [EG]2 | [DF]6 E>[EF] | [EG]2 [EG]2 [EG]2 [DF]>[DF] | %14
w: |||
w: Read- y when the Bride- groom|comes? In the|morn- ing light, or at|
w: |||
w: |||
 E2 [EA]2 [EG]3 [EG] | [EG]<[GB] E>[EF] [EG]2 [DF]2 | [B,E]6 |] %17
w: |||
w: noon, or night, Be|read- y when the Bride- groom|comes.|
w: |||
w: |||
V:2
 E3/2 x/ | x8 | E2 x6 | x8 | x6 E3/2 x/ | x8 | E2 x6 | x2 E3/2 x9/2 | x8 || x8 | x8 | x8 | %12
 x6 E3/2 x/ | x8 | E2 x6 | x2 E3/2 x9/2 | x6 |] %17
V:3
 [E,G,]>[E,A,] | [E,B,]2 [E,B,]2 [E,B,]2 [B,,A,]>[B,,A,] | [C,G,]2 [A,,C]2 [E,B,]3 [E,B,] | %3
 [E,B,]<[E,E] [E,E]>[E,E] [E,E]2 [E,B,]2 | [B,,B,]6 [E,G,]>[E,A,] | %5
 [E,B,]2 [E,B,]2 [E,B,]2 [B,,A,]>[B,,A,] | [C,G,]2 [A,,C]2 [E,B,]3 [E,B,] | %7
 [E,B,]<[E,E] [G,B,]>[A,C] B,2 [B,,A,]2 | [E,G,]6 z2 || [E,B,]2 [E,B,]>[E,E] [A,E] [A,C]2 [A,E] | %10
 [E,E]2 [E,E]2 [E,E]3 z | [E,E]<[E,E] [E,E]>[E,E] [E,E]2 [E,B,]2 | [B,,B,]6 [E,G,]>[E,A,] | %13
 [E,B,]2 [E,B,]2 [E,B,]2 [B,,A,]>[B,,A,] | [C,G,]2 [A,,C]2 [E,B,]3 [E,B,] | %15
 [E,B,]<[E,E] [G,B,]>[A,C] B,2 [B,,A,]2 | [E,G,]6 |] %17
V:4
 x2 | x8 | x8 | x8 | x8 | x8 | x8 | x4 B,2 x2 | x8 || x8 | x8 | x8 | x8 | x8 | x8 | x4 B,2 x2 | %16
 x6 |] %17

